assets/Open hands/Medium/Flat/open_hands_flat_medium.svg

<svg width="32" height="32" viewBox="0 0 32 32" fill="none" xmlns="http://www.w3.org/2000/svg">
<path d="M16.0031 18.9737C15.9533 18.2083 15.3139 17.6 14.5363 17.6C13.7263 17.6 13.0663 18.26 13.0663 19.07V19.48C13.0663 19.62 12.8962 19.7 12.7962 19.59L9.46625 16.26C8.95625 15.75 8.09625 15.74 7.59625 16.26C7.10625 16.77 7.11625 17.57 7.61625 18.08L6.34625 16.81C5.83625 16.3 4.97626 16.29 4.47626 16.81C3.98626 17.32 3.99626 18.12 4.49626 18.63C3.99626 18.13 3.18625 18.12 2.67625 18.61C2.15625 19.11 2.16625 19.97 2.67625 20.48L4.20625 22.01C3.70625 21.51 2.89626 21.5 2.38626 21.99C1.86626 22.49 1.87626 23.35 2.38626 23.86L7.03625 28.51C9.06625 30.54 12.3963 30.55 14.4163 28.52C15.4105 27.5162 15.9565 26.2524 16.0031 24.9833C16.0498 26.2524 16.5954 27.5162 17.5893 28.52C19.6083 30.55 22.9368 30.54 24.9659 28.51L29.6138 23.86C30.1235 23.35 30.1335 22.49 29.6138 21.99C29.104 21.5 28.2944 21.51 27.7946 22.01L29.3239 20.48C29.8337 19.97 29.8437 19.11 29.3239 18.61C28.8141 18.12 28.0045 18.13 27.5047 18.63C28.0045 18.12 28.0145 17.32 27.5247 16.81C27.0249 16.29 26.1653 16.3 25.6556 16.81L24.3862 18.08C24.8859 17.57 24.8959 16.77 24.4062 16.26C23.9064 15.74 23.0468 15.75 22.537 16.26L19.2085 19.59C19.1086 19.7 18.9387 19.62 18.9387 19.48V19.07C18.9387 18.26 18.279 17.6 17.4693 17.6C16.692 17.6 16.0529 18.2083 16.0031 18.9737Z" fill="#C68D7B"/>
<path d="M7.61 18.08C7.31 17.78 7.18999 17.36 7.25999 16.95L10.71 20.4C10.81 20.5 10.81 20.67 10.7 20.78C10.59 20.89 10.42 20.89 10.32 20.79L7.61 18.08Z" fill="#A9715F"/>
<path d="M4.47 18.6L4.5 18.63C4.2 18.33 4.07999 17.91 4.14999 17.51L8.88 22.24C8.98 22.34 8.97999 22.51 8.86999 22.62C8.75999 22.73 8.59 22.73 8.49 22.63L4.47 18.6Z" fill="#A9715F"/>
<path d="M6.66 24.46C6.76 24.56 6.92999 24.56 7.03999 24.45C7.13999 24.34 7.14999 24.17 7.03999 24.07L2.31 19.34C2.24 19.72 2.34999 20.12 2.61999 20.42L6.66 24.46Z" fill="#A9715F"/>
<path d="M24.39 18.08C24.69 17.78 24.81 17.36 24.74 16.95L21.29 20.4C21.19 20.5 21.19 20.67 21.3 20.78C21.41 20.89 21.58 20.89 21.68 20.79L24.39 18.08Z" fill="#A9715F"/>
<path d="M27.5 18.63L27.53 18.6L23.51 22.63C23.41 22.73 23.24 22.73 23.13 22.62C23.02 22.51 23.02 22.34 23.12 22.24L27.85 17.51C27.92 17.91 27.8 18.33 27.5 18.63Z" fill="#A9715F"/>
<path d="M24.96 24.45C25.07 24.56 25.24 24.56 25.34 24.46L29.38 20.42C29.65 20.12 29.76 19.72 29.69 19.34L24.96 24.07C24.85 24.17 24.86 24.34 24.96 24.45Z" fill="#A9715F"/>
<path d="M17.0003 24.7742C16.9903 26.1142 17.5403 27.4642 18.5903 28.5242C19.4703 29.4142 20.6003 29.9042 21.7603 30.0142C20.2603 30.1542 18.7203 29.6642 17.5903 28.5242C16.5403 27.4642 15.9903 26.1142 16.0003 24.7742V19.0742C16.0003 18.2642 16.6603 17.6042 17.4703 17.6042C17.6503 17.6042 17.8103 17.6342 17.9703 17.6942C17.4003 17.8942 17.0003 18.4342 17.0003 19.0742V24.7742Z" fill="#A9715F"/>
</svg>

<svg xmlns="http://www.w3.org/2000/svg" width="32" height="32" fill="none"><path fill="#C68D7B" d="M16.003 18.974a1.473 1.473 0 0 0-1.467-1.374c-.81 0-1.47.66-1.47 1.47v.41c0 .14-.17.22-.27.11l-3.33-3.33c-.51-.51-1.37-.52-1.87 0-.49.51-.48 1.31.02 1.82l-1.27-1.27c-.51-.51-1.37-.52-1.87 0-.49.51-.48 1.31.02 1.82-.5-.5-1.31-.51-1.82-.02-.52.5-.51 1.36 0 1.87l1.53 1.53c-.5-.5-1.31-.51-1.82-.02-.52.5-.51 1.36 0 1.87l4.65 4.65c2.03 2.03 5.36 2.04 7.38.01.995-1.004 1.54-2.268 1.587-3.537.047 1.27.592 2.533 1.586 3.537 2.02 2.03 5.348 2.02 7.377-.01l4.648-4.65c.51-.51.52-1.37 0-1.87a1.3 1.3 0 0 0-1.82.02l1.53-1.53c.51-.51.52-1.37 0-1.87a1.3 1.3 0 0 0-1.82.02c.5-.51.51-1.31.02-1.82-.5-.52-1.359-.51-1.868 0l-1.27 1.27c.5-.51.51-1.31.02-1.82-.5-.52-1.36-.51-1.869 0l-3.328 3.33c-.1.11-.27.03-.27-.11v-.41c0-.81-.66-1.47-1.47-1.47-.777 0-1.416.608-1.466 1.374Z"/><path fill="#A9715F" d="M7.61 18.08c-.3-.3-.42-.72-.35-1.13l3.45 3.45c.1.1.1.27-.01.38-.11.11-.28.11-.38.01l-2.71-2.71ZM4.47 18.6l.03.03c-.3-.3-.42-.72-.35-1.12l4.73 4.73c.1.1.1.27-.01.38-.11.11-.28.11-.38.01L4.47 18.6ZM6.66 24.46c.1.1.27.1.38-.01.1-.11.11-.28 0-.38l-4.73-4.73c-.07.38.04.78.31 1.08l4.04 4.04ZM24.39 18.08c.3-.3.42-.72.35-1.13l-3.45 3.45c-.1.1-.1.27.01.38.11.11.28.11.38.01l2.71-2.71ZM27.5 18.63l.03-.03-4.02 4.03c-.1.1-.27.1-.38-.01a.269.269 0 0 1-.01-.38l4.73-4.73c.07.4-.05.82-.35 1.12ZM24.96 24.45c.11.11.28.11.38.01l4.04-4.04c.27-.3.38-.7.31-1.08l-4.73 4.73c-.11.1-.1.27 0 .38ZM17 24.774c-.01 1.34.54 2.69 1.59 3.75a5.11 5.11 0 0 0 3.17 1.49c-1.5.14-3.04-.35-4.17-1.49-1.05-1.06-1.6-2.41-1.59-3.75v-5.7c0-.81.66-1.47 1.47-1.47.18 0 .34.03.5.09-.57.2-.97.74-.97 1.38v5.7Z"/></svg>
